!!!OTL: REDLICH IST DAS DEUTSCHE LEBEN
!!!ARE: Europa, Mitteleuropa, Deutschland; France, Elsass
!!!SCT: E1349A
!!!YEM: Copyright 1995, estate of Helmut Schaffrath.
**kern
*ICvox
*Ivox
*M4/4
*k[b-e-a-]
*E-:
{4e-
4g
=1
4.f
8a-
4f
4a-
=2
8a-
8g
4g
4r}
{4g
=3
4.f
8e-
8d
8d
8f
8a-
=4
8cc
8b-
4b-
4r}
{8b-
8b-
=5
4.ee-
8dd
4cc
4b-
=6
2b-}
{4g
4e-
=7
4cc
4b-
4.a-
8g
=8
2g}
==
!!!AGN: Staende -, Soldaten -, Kriegs - Lied
!!!ONB: ESAC (Essen Associative Code) Database: ERK3
!!!AMT: simple quadruple
!!!AIN: vox
!!!EED: Helmut Schaffrath
!!!EEV: 1.0
*-
